X:1
T:083 - A Cruz de Cristo
T:Letra: Manuel Avelino de Souza (1886-1962)
T:Música: William Augustus Ogden (1841-1897)
L:1/8
Q:1/4=100
M:4/4
K:Bb
V:1
 F>F | "Bb"B2 B2 B2 B>c | "F"B2 A2 A2 A>B | "F7"A2 G2 G2 G>A | "Bb"G2 F2 F2 F>B | d2 d2 d2 e>d | "Cm"c2 G2 "Eb"cB AG | "Bb/F"F2 F2 "F"FF "F7"G>A | c>B "Bb"HB4 || F>F | "Bb"B4- Bd c>B | "F7"B>A A4 A>B | c4- ce d>c | "Bb"c>B B4 B>c | d2 "Bb7"f2 f2 d>d | "Cm"c2 G2 "Eb"cB AG | "Bb/F"F2 F2 "F"FF "F7"G>A | c>B "Bb"B4 |]
w: 1.~Pen-du-ra-do fos-te,ó Se-nhor Je-sus, Nu-ma cruz, ex-pos-toao des-pre-zo,as-sim, Ce-na quea pen-sar mui-ta gen-tein-duz;_ So_fres-te tan-to, crei-o, foi por mim!     Tu, Je-sus,_ vi-es-te me sal-var.    Tu, Je-sus,_ vi-es-te me sal-var.    Eu con-fi-oem ti, Teu a-mor sen-ti,_    So_fres-te tan-to, crei-o, foi por mim!
w: 2.~San-gue tu ver-tes-te pra me sal-var, Des-te tu-a vi-da, meu Re-den-tor. Cer-toes-tou, foi tu-doem me res-ga-tar;_ So_fres-te tan-to, crei-o, meu Se-nhor!
w: 3.~Tu-a mor-te vei-o me li-ber-tar; Gran-de foi o pe-so de tal pai-xão. Teu a-mor, oh! quem po-de-rá son-dar?!_ So_fres-te, crei-o, em tua com-pai-xão!
w: 4.~To-daa mal-di-ção do pe-ca-do meu Tu le-vas-te, pois, so-bre Ti, Se-nhor. Go-zo paz, tor-nei-meum her-dei-ro teu,_ So_fres-te tu-do, crei-o, pe-loa-mor!
W: 
W:
W: 1. Pendurado foste, ó Senhor Jesus,
W: Numa cruz, exposto ao desprezo, assim,
W: Cena que a pensar muita gente induz;
W: Sofreste tanto, creio, foi por mim!
W: 
W:    (Estribilho)
W:    Tu, Jesus, vieste me salvar.
W:    Tu, Jesus, vieste me salvar.
W:    Eu confio em ti,                         
W:    Teu amor senti,
W:    Sofreste tanto, creio, foi por mim!
W: 
W: 2. Sangue tu verteste pra me salvar,
W: Deste tua vida, meu Redentor.
W: Certo estou, foi tudo em me resgatar;
W: Sofreste tanto, creio, meu Senhor!
W: 
W:
W:
W: 3. Tua morte veio me libertar;
W: Grande foi o peso de tal paixão.
W: Teu amor, oh! quem poderá sondar?!
W: Sofreste, creio, em tua compaixão!
W: 
W: 4. Toda a maldição do pecado meu
W: Tu levaste, pois, sobre Ti, Senhor.
W: Gozo paz, tornei-me um herdeiro teu,
W: Sofreste tudo, creio, pelo amor!
W: 
W: 





%wordsfont Times-Roman 13.0
%vocalfont Times-Roman 13.0
